dist/img/icons/smiley-sad.svg

<svg width="31" height="31" viewBox="0 0 31 31" fill="none" xmlns="http://www.w3.org/2000/svg">
<path d="M15.5001 18.8701C12.9878 18.8701 10.5947 19.9342 8.93285 21.7902C8.68485 22.0678 8.70844 22.4931 8.98541 22.7417C9.11346 22.857 9.27452 22.9136 9.43491 22.9136C9.61957 22.9136 9.80422 22.8381 9.93698 22.6892C11.3434 21.1183 13.3712 20.2179 15.5001 20.2179C17.6297 20.2179 19.6575 21.1183 21.0633 22.6892C21.3113 22.9668 21.7379 22.9897 22.0148 22.7417C22.2918 22.4937 22.3154 22.0678 22.0674 21.7902C20.4062 19.9349 18.0132 18.8701 15.5001 18.8701Z" fill="black"/>
<path d="M15.5 0C6.95276 0 0 6.95343 0 15.5C0 24.0466 6.95276 31 15.5 31C24.0472 31 31 24.0466 31 15.5C31 6.95343 24.0472 0 15.5 0ZM15.5 29.6522C7.69676 29.6522 1.34783 23.3039 1.34783 15.5C1.34783 7.69609 7.69676 1.34783 15.5 1.34783C23.3032 1.34783 29.6522 7.69609 29.6522 15.5C29.6522 23.3039 23.3032 29.6522 15.5 29.6522Z" fill="black"/>
<path d="M23.5867 10.7822C23.214 10.7822 22.9128 11.0841 22.9128 11.4561C22.9128 12.5708 22.0057 13.4779 20.891 13.4779C19.7764 13.4779 18.8693 12.5708 18.8693 11.4561C18.8693 11.0841 18.5681 10.7822 18.1954 10.7822C17.8227 10.7822 17.5215 11.0841 17.5215 11.4561C17.5215 13.3141 19.0331 14.8257 20.891 14.8257C22.749 14.8257 24.2606 13.3141 24.2606 11.4561C24.2606 11.0841 23.9594 10.7822 23.5867 10.7822Z" fill="black"/>
<path d="M13.4784 11.4561C13.4784 11.0841 13.1771 10.7822 12.8045 10.7822C12.4318 10.7822 12.1306 11.0841 12.1306 11.4561C12.1306 12.5708 11.2235 13.4779 10.1088 13.4779C8.99417 13.4779 8.08708 12.5708 8.08708 11.4561C8.08708 11.0841 7.78584 10.7822 7.41317 10.7822C7.0405 10.7822 6.73926 11.0841 6.73926 11.4561C6.73926 13.3141 8.25084 14.8257 10.1088 14.8257C11.9668 14.8257 13.4784 13.3141 13.4784 11.4561Z" fill="black"/>
</svg>

<svg width="31" height="31" viewBox="0 0 31 31" fill="none" xmlns="http://www.w3.org/2000/svg"><path d="M15.5 18.87a8.817 8.817 0 0 0-6.567 2.92.674.674 0 0 0 1.004.9 7.468 7.468 0 0 1 5.563-2.472c2.13 0 4.157.9 5.563 2.471a.674.674 0 1 0 1.004-.899 8.818 8.818 0 0 0-6.567-2.92z" fill="#000"/><path d="M15.5 0C6.953 0 0 6.953 0 15.5S6.953 31 15.5 31 31 24.047 31 15.5 24.047 0 15.5 0zm0 29.652c-7.803 0-14.152-6.348-14.152-14.152 0-7.804 6.349-14.152 14.152-14.152 7.803 0 14.152 6.348 14.152 14.152 0 7.804-6.349 14.152-14.152 14.152z" fill="#000"/><path d="M23.587 10.782a.674.674 0 0 0-.674.674 2.024 2.024 0 0 1-2.022 2.022 2.024 2.024 0 0 1-2.022-2.022.674.674 0 1 0-1.348 0 3.373 3.373 0 0 0 3.37 3.37 3.373 3.373 0 0 0 3.37-3.37.674.674 0 0 0-.674-.674zM13.478 11.456a.674.674 0 1 0-1.347 0 2.024 2.024 0 0 1-2.022 2.022 2.024 2.024 0 0 1-2.022-2.022.674.674 0 1 0-1.348 0 3.373 3.373 0 0 0 3.37 3.37 3.373 3.373 0 0 0 3.37-3.37z" fill="#000"/></svg>
